contributed-vectors/action_dash.svg

<svg viewBox="0 0 192 192" xmlns="http://www.w3.org/2000/svg" fill-rule="evenodd" clip-rule="evenodd" stroke-linecap="round" stroke-linejoin="round" stroke-miterlimit="1.5"><circle cx="88" cy="88" r="88" fill="#9abeff" transform="translate(8 8)"/><path d="M76.651 86.804a7.01 7.01 0 01-2.025-4.928v-10.86a9.157 9.157 0 019.157-9.157h25.184a9.153 9.153 0 019.157 9.157v10.788a7.007 7.007 0 01-2.025 4.929l-9.35 9.456 9.348 9.447a7.007 7.007 0 012.027 4.93v10.789a9.153 9.153 0 01-9.157 9.157H83.783a9.156 9.156 0 01-9.157-9.157v-10.86c0-1.846.729-3.618 2.027-4.931l9.278-9.375-9.28-9.385zm19.724 15.118l9.723 9.451v7.154H86.653v-7.154l9.722-9.451zm0-11.288l-9.722-9.452v-7.153h19.445v7.153l-9.723 9.452z" fill="#fff"/><path d="M18.765 96c0 42.656 34.579 77.235 77.235 77.235a77.201 77.201 0 000 0c-42.656 0-77.235-34.579-77.235-77.235z" fill="none" stroke="#ff837d" stroke-width="21.503612"/><path d="M96.037 173.236c42.656-.021 77.219-34.617 77.198-77.273a77.201 77.201 0 000 0c.021 42.656-34.542 77.252-77.198 77.273z" fill="none" stroke="#98dc9a" stroke-width="21.503612"/><path d="M173.235 95.992c-.004-42.656-34.587-77.231-77.243-77.227a77.201 77.201 0 000 0c42.656-.004 77.239 34.571 77.243 77.227z" fill="none" stroke="#9abeff" stroke-width="21.503612"/><path d="M95.97 18.765c-42.655.016-77.222 34.608-77.205 77.264a77.201 77.201 0 000 0c-.017-42.656 34.55-77.248 77.206-77.264z" fill="none" stroke="#f9de81" stroke-width="21.503612"/><path d="M18.765 96a77.239 77.239 0 000 0z" fill="none" stroke="#ff837d" stroke-width="21.503612"/><g transform="matrix(.7063 0 0 .7063 33.846 33.846)"><circle cx="88" cy="88" r="88" fill="none" stroke="#fff" stroke-width="12.32" stroke-linecap="butt" stroke-linejoin="miter" stroke-miterlimit="4"/></g></svg>

<?xml version="1.0" encoding="UTF-8" standalone="no"?>
<!DOCTYPE svg PUBLIC "-//W3C//DTD SVG 1.1//EN" "http://www.w3.org/Graphics/SVG/1.1/DTD/svg11.dtd">
<svg width="100%" height="100%" viewBox="0 0 192 192" version="1.1" xmlns="http://www.w3.org/2000/svg" xmlns:xlink="http://www.w3.org/1999/xlink" xml:space="preserve" xmlns:serif="http://www.serif.com/" style="fill-rule:evenodd;clip-rule:evenodd;stroke-linecap:round;stroke-linejoin:round;stroke-miterlimit:1.5;">
    <g id="Layer2">
        <g transform="matrix(1,0,0,1,8,8)">
            <circle cx="88" cy="88" r="88" style="fill:rgb(154,190,255);"/>
        </g>
        <path d="M76.651,86.804C75.354,85.492 74.626,83.721 74.626,81.876C74.626,77.847 74.626,71.016 74.626,71.016C74.626,68.587 75.591,66.258 77.308,64.541C79.026,62.823 81.355,61.859 83.783,61.859C91.188,61.859 101.563,61.859 108.967,61.859C111.396,61.859 113.725,62.823 115.442,64.541C117.16,66.258 118.124,68.587 118.124,71.016L118.124,81.804C118.124,83.65 117.397,85.421 116.099,86.733C112.829,90.04 106.749,96.189 106.749,96.189C106.749,96.189 112.827,102.331 116.097,105.636C117.396,106.948 118.124,108.72 118.124,110.566C118.124,114.577 118.124,121.355 118.124,121.355C118.124,123.784 117.16,126.113 115.442,127.83C113.725,129.548 111.396,130.512 108.967,130.512C101.563,130.512 91.188,130.512 83.783,130.512C81.355,130.512 79.026,129.548 77.308,127.83C75.591,126.113 74.626,123.784 74.626,121.355L74.626,110.495C74.626,108.649 75.355,106.877 76.653,105.564C79.907,102.277 85.931,96.189 85.931,96.189C85.931,96.189 79.904,90.094 76.651,86.804ZM96.375,101.922L106.098,111.373L106.098,118.527L86.653,118.527L86.653,111.373L96.375,101.922ZM96.375,90.634L86.653,81.182L86.653,74.029L106.098,74.029L106.098,81.182L96.375,90.634Z" style="fill:white;"/>
        <g>
            <g transform="matrix(1.0148,0,0,1.0148,-1.42087,-1.42087)">
                <path d="M19.891,96C19.891,138.034 53.966,172.109 96,172.109C99.987,172.109 103.968,171.796 107.906,171.172C103.968,171.796 99.987,172.109 96,172.109C53.966,172.109 19.891,138.034 19.891,96Z" style="fill:none;stroke:rgb(255,131,125);stroke-width:21.19px;"/>
            </g>
            <g transform="matrix(-0.000490545,-1.0148,1.0148,-0.000490545,-1.37376,193.468)">
                <path d="M19.891,96C19.891,138.034 53.966,172.109 96,172.109C99.987,172.109 103.968,171.796 107.906,171.172C103.968,171.796 99.987,172.109 96,172.109C53.966,172.109 19.891,138.034 19.891,96Z" style="fill:none;stroke:rgb(152,220,154);stroke-width:21.19px;"/>
            </g>
            <g transform="matrix(-1.0148,0.000107802,-0.000107802,-1.0148,193.431,193.411)">
                <path d="M19.891,96C19.891,138.034 53.966,172.109 96,172.109C99.987,172.109 103.968,171.796 107.906,171.172C103.968,171.796 99.987,172.109 96,172.109C53.966,172.109 19.891,138.034 19.891,96Z" style="fill:none;stroke:rgb(154,190,255);stroke-width:21.19px;"/>
            </g>
            <g transform="matrix(0.000382465,1.0148,-1.0148,0.000382465,193.384,-1.45758)">
                <path d="M19.891,96C19.891,138.034 53.966,172.109 96,172.109C99.987,172.109 103.968,171.796 107.906,171.172C103.968,171.796 99.987,172.109 96,172.109C53.966,172.109 19.891,138.034 19.891,96Z" style="fill:none;stroke:rgb(249,222,129);stroke-width:21.19px;"/>
            </g>
            <g transform="matrix(1.0148,0,0,1.0148,-1.42087,-1.42087)">
                <path d="M19.891,96C19.891,113.437 25.879,130.346 36.852,143.897C25.879,130.346 19.891,113.437 19.891,96Z" style="fill:none;stroke:rgb(255,131,125);stroke-width:21.19px;"/>
            </g>
        </g>
        <g transform="matrix(0.706295,0,0,0.706295,33.8461,33.8461)">
            <circle cx="88" cy="88" r="88" style="fill:none;stroke:white;stroke-width:12.32px;stroke-linecap:butt;stroke-linejoin:miter;stroke-miterlimit:4;"/>
        </g>
    </g>
</svg>
